X:32
T:The Maid Behind the Bar
S:Bernie Waugh
R:Reel
M:2/4
L:1/16
K:D
|:\
"D"FAAF AFED|FAAF A2de|"Bm"fB~BA Bcde|f2af edBA|
"D"FAAF AFED|FAAF A2de|"Bm"fB~BA BcdB|"A"AFEF "D"D4:|
|:\
"D"fgag fdde|fdad fddf|"Em"efga beef|gebe geeg|
"F#m"fgaf "G"bfaf|"A"(3efe de "Bm"f2de|"G"fB~BA BcdB|"A"AFEF "D"D4:|

